03_DEV/FRONT/public/assets/images/globe.svg

<svg height="33" viewBox="0 0 33 33" width="33" xmlns="http://www.w3.org/2000/svg"><path d="m10.7992243 25.0785512c3.6641222 2.3955471 7.4356869 4.0179512 10.6081821 4.6303485-4.0865061 1.4999477-8.8030105 1.1326933-12.72056305-1.4311882-3.90220365-2.5561777-6.11452566-6.7196969-6.36795597-11.0438467 1.8358695 2.6557526 4.83167894 5.4492544 8.48033692 7.8446864m-6.57533957-15.74295468c1.22895238 3.32161668 4.85464463 7.28598608 9.95521827 10.62289548 4.8394111 3.1684599 9.6864389 4.9058467 13.1968412 4.9058467.1920346 0 .3611035-.0229965.545406-.0307004-.7758707 1.0485262-1.666916 1.9593032-2.6501702 2.732331-.3225581.0687596-.6759296.1147527-1.0599988.1147527-3.0880184.0765783-7.7506284-1.6531046-12.1368424-4.5307736-4.3860986-2.8699651-7.82737298-6.4364947-8.99504508-9.3141637-.14598786-.3443729-.23808139-.673568-.30720924-1.0026481.30720924-1.201568.79883636-2.3725505 1.45180025-3.49754008m1.85883519-2.50271081c.58383605-.63516376 1.22145103-1.20156794 1.8973806-1.69898257 1.53627703 3.17616376 5.05452678 6.75787106 9.57114898 9.71211846 4.5244697 2.9618362 9.2332419 4.7373972 12.7513763 4.8828502-.1996514.8189059-.4686615 1.630108-.8219175 2.4184285-2.0509852 1.1479861-7.8197562-.0381742-14.0418397-4.1098223-6.21435137-4.0715331-9.60196223-8.87033096-9.35614868-11.20459229m6.99795418-4.1098223c1.8972652 2.44142509 4.6472611 4.90584669 7.8504541 7.00289896 3.203193 2.09693733 6.560106 3.62758533 9.5635322 4.39302443.1843024 1.102108.2458135 2.2193937.1689535 3.3367944-3.0649373-.0305854-7.5739426-1.7372718-11.8448666-4.5307735-4.232494-2.7705053-7.5816749-6.18387808-8.87213833-9.03096171.99860313-.52052613 2.05098523-.90318815 3.13406513-1.17098258m11.2149839 1.88272474c2.6348212 1.72209408 4.4936564 4.1864007 5.5076085 6.92632055-2.4273223-.7807317-5.0697604-2.05876306-7.6123727-3.72727525-2.5502291-1.66828223-4.7779-3.56641463-6.4601649-5.47972474 2.9344138-.16074564 5.9302232.55870035 8.5649291 2.28067944m-20.8553761 21.88865855c1.09081208 1.4083066 2.41208879 2.6710453 3.98679582 3.6965749 2.78831048 1.821554 5.93010778 2.6940418 9.04109188 2.6940418 3.5412154 0 7.0362688-1.1403972 9.9169036-3.2833275.0613957-.0382892.1151746-.0765784.1689535-.1225714 1.4287192-1.0867004 2.696217-2.4260175 3.7409823-4.0102474 1.3442424-2.0434704 2.1584277-4.2782718 2.5040669-6.5436586.0461622-.1377491.0691279-.2907909.0615111-.4515365.2304646-1.8292579.1536046-3.6812823-.2304646-5.4645471-.0153489-.0841672-.0306979-.1606306-.0615111-.237209-.914011-3.99506973-3.3106355-7.66876311-7.0131877-10.08719168-3.7024369-2.42601743-8.034872-3.15316725-12.0829481-2.40313589-.07686.00758885-.15372.01540766-.2228478.0382892-1.7974395.3596655-3.53348336 1.02552961-5.13115607 1.96689198-.14598787.05358188-.27662681.1300453-.39191683.22962021-1.26738238.78832056-2.44267123 1.76785714-3.47958898 2.90825436-.07686001.06887456-.15372003.14545296-.20749896.22962021-.47627819.55099651-.93709205 1.12510453-1.35197455 1.74497561-1.02156883 1.55364459-1.72831166 3.214338-2.1737766 4.9211394-.05377893.1300453-.09220893.2677944-.0999411.4132474-1.06773099 4.6685226-.04604676 9.5972508 2.79615806 13.4545714.06139568.1071637.1382557.2144425.23034923.3061986" fill="#fff" fill-rule="evenodd"/></svg>

<?xml version="1.0" encoding="UTF-8"?>
<svg width="33px" height="33px" viewBox="0 0 33 33" version="1.1" xmlns="http://www.w3.org/2000/svg" xmlns:xlink="http://www.w3.org/1999/xlink">
    <title>Fill 1</title>
    <g id="Symbols" stroke="none" stroke-width="1" fill="none" fill-rule="evenodd">
        <g id="Logo" transform="translate(0.000000, -4.000000)" fill="#FFFFFF">
            <g id="Group-3" transform="translate(0.000000, 4.000000)">
                <path d="M10.7992243,25.0785512 C14.4633465,27.4740983 18.2349112,29.0965024 21.4074064,29.7088997 C17.3209003,31.2088474 12.6043959,30.841593 8.68684335,28.2777115 C4.7846397,25.7215338 2.57231769,21.5580146 2.31888738,17.2338648 C4.15475688,19.8896174 7.15056632,22.6831192 10.7992243,25.0785512 M4.22388473,9.33559652 C5.45283711,12.6572132 9.07852936,16.6215826 14.179103,19.958492 C19.0185141,23.1269519 23.8655419,24.8643387 27.3759442,24.8643387 C27.5679788,24.8643387 27.7370477,24.8413422 27.9213502,24.8336383 C27.1454795,25.8821645 26.2544342,26.7929415 25.27118,27.5659693 C24.9486219,27.6347289 24.5952504,27.680722 24.2111812,27.680722 C21.1231628,27.7573003 16.4605528,26.0276174 12.0743388,23.1499484 C7.6882402,20.2799833 4.24696582,16.7134537 3.07929372,13.8357847 C2.93330586,13.4914118 2.84121233,13.1622167 2.77208448,12.8331366 C3.07929372,11.6315686 3.57092084,10.4605861 4.22388473,9.33559652 M6.08271992,6.83288571 C6.66655597,6.19772195 7.30417095,5.63131777 7.98010052,5.13390314 C9.51637755,8.3100669 13.0346273,11.8917742 17.5512495,14.8460216 C22.0757192,17.8078578 26.7844914,19.5834188 30.3026258,19.7288718 C30.1029744,20.5477777 29.8339643,21.3589798 29.4807083,22.1473003 C27.4297231,23.2952864 21.6609521,22.1091261 15.4388686,18.037478 C9.22451723,13.9659449 5.83690637,9.16714704 6.08271992,6.83288571 M13.0806741,2.72306341 C14.9779393,5.1644885 17.7279352,7.6289101 20.9311282,9.72596237 C24.1343212,11.8228997 27.4912342,13.3535477 30.4946604,14.1189868 C30.6789628,15.2210948 30.7404739,16.3383805 30.6636139,17.4557812 C27.5986766,17.4251958 23.0896713,15.7185094 18.8187473,12.9250077 C14.5862533,10.1545024 11.2370724,6.74112962 9.94660897,3.89404599 C10.9452121,3.37351986 11.9975942,2.99085784 13.0806741,2.72306341 M24.295658,4.60578815 C26.9304792,6.32788223 28.7893144,8.79218885 29.8032665,11.5321087 C27.3759442,10.751377 24.7335061,9.47334564 22.1908938,7.80483345 C19.6406647,6.13655122 17.4129938,4.23841882 15.7307289,2.32510871 C18.6651427,2.16436307 21.6609521,2.88380906 24.295658,4.60578815 M3.4402819,26.4944467 C4.53109398,27.9027533 5.85237069,29.165492 7.42707772,30.1910216 C10.2153882,32.0125756 13.3571855,32.8850634 16.4681696,32.8850634 C20.009385,32.8850634 23.5044384,31.7446662 26.3850732,29.6017359 C26.4464689,29.5634467 26.5002478,29.5251575 26.5540267,29.4791645 C27.9827459,28.3924641 29.2502437,27.053147 30.295009,25.4689171 C31.6392514,23.4254467 32.4534367,21.1906453 32.7990759,18.9252585 C32.8452381,18.7875094 32.8682038,18.6344676 32.860587,18.473722 C33.0910516,16.6444641 33.0141916,14.7924397 32.6301224,13.0091749 C32.6147735,12.9250077 32.5994245,12.8485443 32.5686113,12.7719659 C31.6546003,8.77689617 29.2579758,5.10320279 25.5554236,2.68477422 C21.8529867,0.258756794 17.5205516,-0.468393031 13.4724755,0.281638328 C13.3956155,0.289227178 13.3187555,0.297045993 13.2496277,0.319927526 C11.4521882,0.679593031 9.71614434,1.34545714 8.11847163,2.28681951 C7.97248376,2.34040139 7.84184482,2.41686481 7.7265548,2.51643972 C6.45917242,3.30476028 5.28388357,4.28429686 4.24696582,5.42469408 C4.17010581,5.49356864 4.09324579,5.57014704 4.03946686,5.65431429 C3.56318867,6.2053108 3.10237481,6.77941882 2.68749231,7.3992899 C1.66592348,8.95293449 0.959180653,10.6136279 0.513715711,12.3204293 C0.459936783,12.4504746 0.421506776,12.5882237 0.413774613,12.7336767 C-0.653956384,17.4021993 0.367727848,22.3309275 3.20993267,26.1882481 C3.27132835,26.2954118 3.34818837,26.4026906 3.4402819,26.4944467" id="Fill-1"></path>
            </g>
        </g>
    </g>
</svg>
